svgs/regular/hat-winter.svg

<svg xmlns="http://www.w3.org/2000/svg" viewBox="0 0 512 512"><!-- Font Awesome Pro 6.0.0-alpha2 by @fontawesome - https://fontawesome.com License - https://fontawesome.com/license (Commercial License) --><path d="M195.25 105.25C189.75 115.25 190.75 128 199.375 136.625C204.625 141.75 211.375 144.375 218.25 144.375C222.75 144.375 226.875 142.875 230.75 140.75C234.125 151.75 243.875 160 256 160S277.875 151.75 281.25 140.75C285.25 142.875 289.375 144.375 293.75 144.375C300.5 144.375 307.25 141.75 312.625 136.625C321.25 128 322.25 115.25 316.75 105.25C327.75 101.875 336 92.125 336 80S327.75 58.125 316.75 54.75C322.25 44.75 321.25 32 312.625 23.375S291.25 13.75 281.25 19.25C277.875 8.25 268.125 0 256 0S234.125 8.25 230.75 19.25C220.75 13.75 208 14.75 199.375 23.375S189.75 44.75 195.25 54.75C184.25 58.125 176 67.875 176 80S184.25 101.875 195.25 105.25ZM480 416H32C14.25 416 0 430.25 0 448V480C0 497.75 14.25 512 32 512H480C497.75 512 512 497.75 512 480V448C512 430.25 497.75 416 480 416ZM85.875 335.875L128 314.75L192 346.75L256 314.75L320 346.75L384 314.75L426.125 335.875C431.625 362.25 432 381.5 432 384H480C480 382 477.75 218.5 348.125 139.125C345.25 146.375 341 153.25 335.125 159.25C328.5 165.75 320.5 170.375 311.875 173.25C358.75 197.75 387.125 235 404.5 271.375L384 261.25L320 293.25L256 261.25L192 293.25L128 261.25L107.375 271.5C124.75 235.125 153.25 197.875 200 173.25C191.375 170.5 183.375 165.875 176.75 159.25C170.875 153.375 166.75 146.625 163.875 139.25C34.25 218.5 32 382 32 384H80C80 381.5 80.375 362.25 85.875 335.875Z"/></svg>

<svg xmlns="http://www.w3.org/2000/svg" viewBox="0 0 512 512"><!-- Font Awesome Pro 5.15.1 by @fontawesome - https://fontawesome.com License - https://fontawesome.com/license (Commercial License) --><path d="M480 416H32c-17.7 0-32 14.3-32 32v32c0 17.7 14.3 32 32 32h448c17.7 0 32-14.3 32-32v-32c0-17.7-14.3-32-32-32zM195.2 105.2c-5.5 10.1-4.4 22.8 4.2 31.4 5.2 5.2 12 7.8 18.9 7.8 4.4 0 8.6-1.5 12.5-3.6 3.3 11 13.1 19.2 25.2 19.2s21.9-8.2 25.2-19.2c4 2.1 8.2 3.6 12.5 3.6 6.8 0 13.6-2.6 18.9-7.8 8.6-8.6 9.7-21.3 4.2-31.4 11-3.3 19.2-13.1 19.2-25.2s-8.2-21.9-19.2-25.2c5.5-10.1 4.4-22.8-4.2-31.4s-21.3-9.7-31.4-4.2C277.9 8.2 268.1 0 256 0s-21.9 8.2-25.2 19.2c-10.1-5.5-22.8-4.4-31.4 4.2s-9.7 21.3-4.2 31.4C184.2 58.1 176 67.9 176 80s8.2 21.9 19.2 25.2zM85.9 335.9l42.1-21.1 64 32 64-32 64 32 64-32 42.1 21.1c5.5 26.4 5.9 45.6 5.9 48.1h48c0-2-2.3-165.5-131.9-244.9-2.8 7.3-7.1 14.2-13 20.1-6.6 6.6-14.6 11.2-23.2 14 46.8 24.6 75.2 61.8 92.6 98.2L384 261.2l-64 32-64-32-64 32-64-32-20.6 10.3c17.4-36.4 45.8-73.6 92.6-98.2-8.6-2.8-16.6-7.4-23.2-14-5.9-5.9-10.1-12.7-12.9-20.1C34.3 218.5 32 382 32 384h48c0-2.5.4-21.7 5.9-48.1z"/></svg>
